packages/ui-solid/icons/person_24.svg

<svg width="24" height="24" viewBox="0 0 24 24" fill="none" xmlns="http://www.w3.org/2000/svg">
<path fill-rule="evenodd" clip-rule="evenodd" d="M12 3.89998C9.93801 3.89998 8.26767 5.57001 8.26767 7.62855C8.26767 9.68709 9.93801 11.3571 12 11.3571C14.062 11.3571 15.7324 9.68709 15.7324 7.62855C15.7324 5.57001 14.062 3.89998 12 3.89998ZM6.46767 7.62855C6.46767 4.57451 8.94528 2.09998 12 2.09998C15.0548 2.09998 17.5324 4.57451 17.5324 7.62855C17.5324 10.6826 15.0548 13.1571 12 13.1571C8.94528 13.1571 6.46767 10.6826 6.46767 7.62855ZM4.1196 16.2241C5.15414 15.2699 6.417 14.9571 7.36765 14.9571H16.6324C17.583 14.9571 18.8459 15.2699 19.8804 16.2241C20.9368 17.1984 21.65 18.7438 21.65 21C21.65 21.497 21.2471 21.9 20.75 21.9C20.253 21.9 19.85 21.497 19.85 21C19.85 19.1418 19.2765 18.1158 18.66 17.5473C18.0218 16.9586 17.2258 16.7571 16.6324 16.7571H7.36765C6.77419 16.7571 5.97823 16.9586 5.33997 17.5473C4.72355 18.1158 4.15001 19.1418 4.15001 21C4.15001 21.497 3.74706 21.9 3.25001 21.9C2.75295 21.9 2.35001 21.497 2.35001 21C2.35001 18.7438 3.06322 17.1984 4.1196 16.2241Z" fill="#007AFF"/>
</svg>

<svg xmlns="http://www.w3.org/2000/svg" width="24" height="24" fill="none"><path fill="currentColor" fill-rule="evenodd" d="M12 3.9a3.73 3.73 0 0 0-3.732 3.729A3.73 3.73 0 0 0 12 11.357a3.73 3.73 0 0 0 3.732-3.728A3.73 3.73 0 0 0 12 3.9M6.468 7.629A5.53 5.53 0 0 1 12 2.1a5.53 5.53 0 0 1 5.532 5.529A5.53 5.53 0 0 1 12 13.157 5.53 5.53 0 0 1 6.468 7.63M4.12 16.224a4.84 4.84 0 0 1 3.248-1.267h9.264c.951 0 2.214.313 3.248 1.267 1.057.974 1.77 2.52 1.77 4.776a.9.9 0 0 1-1.8 0c0-1.858-.574-2.884-1.19-3.453a3.04 3.04 0 0 0-2.028-.79H7.368c-.594 0-1.39.202-2.028.79-.616.569-1.19 1.595-1.19 3.453a.9.9 0 0 1-1.8 0c0-2.256.713-3.802 1.77-4.776" clip-rule="evenodd"/></svg>
